tools/work/Papirus/mimetypes/_TEMPLATE@64x64.SVG

<?xml version="1.0" encoding="UTF-8" standalone="no"?>
<svg xmlns="http://www.w3.org/2000/svg" height="64" width="64" version="1.1">
 <path d="m14.5 7c-1.385 0-2.5 1.115-2.5 2.5v45c0 1.385 1.115 2.5 2.5 2.5h35c1.385 0 2.5-1.115 2.5-2.5v-32.5l-13.75-1.25-1.25-13.75z" fill="#cccccc"/>
 <path d="m37 7v12.5c0 1.3808 1.1193 2.5 2.5 2.5h12.5l-15-15z" fill="#ebebeb"/>
 <path d="M 14.5,7 C 13.115,7 12,8.115 12,9.5 V 10.5 C 12,9.115 13.115,8 14.5,8 H 37 V 7 Z" style="fill:#ffffff;opacity:0"/>
</svg>

<svg xmlns="http://www.w3.org/2000/svg" width="64" height="64" version="1.1">
 <path style="opacity:0.2" d="M 14.5,8 C 13.115,8 12,9.115 12,10.5 V 55.5 C 12,56.885 13.115,58 14.5,58 H 49.5 C 50.885,58 52,56.885 52,55.5 V 23 L 37,8 Z"/>
 <path style="fill:#cccccc" d="M 14.5 7 C 13.115 7 12 8.115 12 9.5 L 12 54.5 C 12 55.885 13.115 57 14.5 57 L 49.5 57 C 50.885 57 52 55.885 52 54.5 L 52 22 L 37 7 L 14.5 7 z"/>
 <path style="opacity:0.2" d="M 52,23 37,8 V 20.5 C 37,21.885 38.115,23 39.5,23 Z"/>
 <path style="fill:#ebebeb" d="M 52,22 37,7 V 19.5 C 37,20.885 38.115,22 39.5,22 Z"/>
 <path style="opacity:0.2;fill:#ffffff" d="M 14.5 7 C 13.115 7 12 8.115 12 9.5 L 12 10.5 C 12 9.115 13.115 8 14.5 8 L 37 8 L 37 7 L 14.5 7 z"/>
</svg>
